X:8
T:La Cabaretiere
B:XVIIIeme
M:6/8
K:Bb
c2 d |e2 f g>fg | e2 d c2 d | e2 f g>fg |
d3 c2 d | e2 f g>fg | e2 d c2 d | e2 f g>fg | c3 :|
K:C
|:f>_e_e | c3 c>BA | G3 G2 A | B2 c _e2 e |
d2 c f>_ed | c3 c>BA | G3 G2 A | B2 c d>cB |c3 :|
